icons/tracked-by-closed-not-planned-24.svg

<svg width="24" height="24" viewBox="0 0 24 24" fill="none" xmlns="http://www.w3.org/2000/svg">
<path d="M12 2.5C6.75329 2.5 2.5 6.75329 2.5 12C2.5 17.2467 6.75329 21.5 12 21.5C12.4142 21.5 12.75 21.8358 12.75 22.25C12.75 22.6642 12.4142 23 12 23C5.92487 23 1 18.0751 1 12C1 5.92487 5.92487 1 12 1C18.0751 1 23 5.92487 23 12C23 12.4142 22.6642 12.75 22.25 12.75C21.8358 12.75 21.5 12.4142 21.5 12C21.5 6.75329 17.2467 2.5 12 2.5Z" fill="black"/>
<path d="M13.759 17.4802L17.4873 20.7943C17.686 20.9709 18 20.8298 18 20.5641V18H22.25C22.6642 18 23 17.6642 23 17.25C23 16.8358 22.6642 16.5 22.25 16.5L18 16.5V13.9359C18 13.6702 17.686 13.5291 17.4873 13.7057L13.759 17.0198C13.6212 17.1423 13.6212 17.3577 13.759 17.4802Z" fill="black"/>
<path d="M17.2803 7.78033C17.5732 7.48744 17.5732 7.01256 17.2803 6.71967C16.9874 6.42678 16.5126 6.42678 16.2197 6.71967L6.71967 16.2197C6.42678 16.5126 6.42678 16.9874 6.71967 17.2803C7.01256 17.5732 7.48744 17.5732 7.78033 17.2803L17.2803 7.78033Z" fill="black"/>
</svg>

<svg xmlns="http://www.w3.org/2000/svg" width="24" height="24" viewBox="0 0 24 24"><path d="M12 2.5A9.5 9.5 0 0 0 2.5 12a9.5 9.5 0 0 0 9.5 9.5.75.75 0 0 1 0 1.5C5.925 23 1 18.075 1 12S5.925 1 12 1s11 4.925 11 11a.75.75 0 0 1-1.5 0A9.5 9.5 0 0 0 12 2.5Z"/><path d="m13.759 17.48 3.728 3.314a.308.308 0 0 0 .513-.23V18h4.25a.75.75 0 0 0 0-1.5H18v-2.564a.308.308 0 0 0-.513-.23l-3.728 3.314a.307.307 0 0 0 0 .46Zm3.521-9.7a.749.749 0 1 0-1.06-1.06l-9.5 9.5a.749.749 0 1 0 1.06 1.06l9.5-9.5Z"/></svg>
